dist/assets/img/price/price-img-phone-normal.svg

<svg width="30" height="52" viewBox="0 0 30 52" fill="none" xmlns="http://www.w3.org/2000/svg">
<path d="M24.8636 1.13281H5.13636C2.85191 1.13281 1 2.98473 1 5.26918V47.2692C1 49.5536 2.85191 51.4055 5.13636 51.4055H24.8636C27.1481 51.4055 29 49.5536 29 47.2692V5.26918C29 2.98473 27.1481 1.13281 24.8636 1.13281Z" stroke="#14161D"/>
<path fill-rule="evenodd" clip-rule="evenodd" d="M8.83569 22.929C8.83569 22.637 9.08627 22.4004 9.39538 22.4004H26.1861C26.4952 22.4004 26.7458 22.637 26.7458 22.929C26.7458 23.2209 26.4952 23.4576 26.1861 23.4576H9.39538C9.08627 23.4576 8.83569 23.2209 8.83569 22.929ZM9.95507 25.0434C9.95507 24.7514 10.2056 24.5148 10.5148 24.5148H19.4698C19.7789 24.5148 20.0295 24.7514 20.0295 25.0434C20.0295 25.3353 19.7789 25.572 19.4698 25.572H10.5148C10.2056 25.572 9.95507 25.3353 9.95507 25.0434ZM9.39538 26.6292C9.08627 26.6292 8.83569 26.8658 8.83569 27.1578C8.83569 27.4497 9.08627 27.6863 9.39538 27.6863H25.0667C25.3758 27.6863 25.6264 27.4497 25.6264 27.1578C25.6264 26.8658 25.3758 26.6292 25.0667 26.6292H9.39538ZM9.95507 29.2722C9.95507 28.9802 10.2056 28.7435 10.5148 28.7435H17.231C17.5402 28.7435 17.7907 28.9802 17.7907 29.2722C17.7907 29.5641 17.5402 29.8007 17.231 29.8007H10.5148C10.2056 29.8007 9.95507 29.5641 9.95507 29.2722ZM10.5148 30.8579C10.2056 30.8579 9.95507 31.0946 9.95507 31.3865C9.95507 31.6785 10.2056 31.9151 10.5148 31.9151H17.231C17.5402 31.9151 17.7907 31.6785 17.7907 31.3865C17.7907 31.0946 17.5402 30.8579 17.231 30.8579H10.5148Z" fill="#E4E8F4"/>
<path d="M4.28675 27.1174C4.09949 27.1174 3.94812 27.2604 3.94812 27.4372C3.94812 27.6141 4.09949 27.757 4.28675 27.757C4.68057 27.757 4.99109 27.877 5.23591 28.1236C5.95075 28.8447 5.85459 30.3582 5.85291 30.3955V34.4732C5.85291 35.5001 6.15498 36.2923 6.74993 36.8258C7.46409 37.4667 8.36553 37.5121 8.60525 37.5121C8.63843 37.5121 8.65875 37.5108 8.66418 37.5108C8.85112 37.5022 8.99468 37.3516 8.98488 37.1747C8.97503 36.9975 8.81283 36.8613 8.62898 36.8718C8.62013 36.8757 7.82134 36.9051 7.21621 36.3621C6.76039 35.9537 6.53014 35.3178 6.53014 34.4732L6.52947 30.417C6.5349 30.3437 6.64734 28.6119 5.73168 27.688C5.63721 27.5927 5.53495 27.5085 5.42654 27.4376C5.53495 27.3659 5.63721 27.2828 5.73168 27.1868C6.64734 26.2616 6.5349 24.5307 6.53014 24.4792V20.4016C6.53014 19.5602 6.75905 18.9266 7.21078 18.5175C7.80914 17.9758 8.61879 18.0014 8.63066 18.0027C8.81726 18.0135 8.97503 17.876 8.98488 17.6998C8.99401 17.5232 8.85078 17.3732 8.66418 17.3637C8.61745 17.3643 7.56366 17.3189 6.7506 18.049C6.15498 18.5831 5.85358 19.375 5.85358 20.4016L5.85426 24.5007C5.8847 24.9219 5.8326 26.148 5.23759 26.7496C4.99177 26.9972 4.68125 27.1174 4.28675 27.1174Z" fill="#3980FF"/>
<path d="M7.38623 1.13281H22.6139C22.4595 2.21215 21.5312 3.0419 20.4092 3.0419H9.59098C8.46894 3.0419 7.54068 2.21215 7.38623 1.13281Z" fill="#14161D" stroke="#14161D"/>
</svg>

<svg width="30" height="52" fill="none" xmlns="http://www.w3.org/2000/svg"><path d="M24.864 1.133H5.136A4.136 4.136 0 001 5.269v42a4.136 4.136 0 004.136 4.137h19.728A4.136 4.136 0 0029 47.269v-42a4.136 4.136 0 00-4.136-4.136z" stroke="#14161D"/><path fill-rule="evenodd" clip-rule="evenodd" d="M8.836 22.929c0-.292.25-.529.56-.529h16.79c.31 0 .56.237.56.529 0 .292-.25.529-.56.529H9.396c-.31 0-.56-.237-.56-.529zm1.12 2.114c0-.292.25-.528.559-.528h8.955c.309 0 .56.236.56.528 0 .292-.251.529-.56.529h-8.955c-.31 0-.56-.237-.56-.529zm-.56 1.586c-.31 0-.56.237-.56.529 0 .292.25.528.56.528h15.67c.31 0 .56-.236.56-.528 0-.292-.25-.529-.56-.529H9.397zm.56 2.643c0-.292.25-.528.559-.528h6.716c.31 0 .56.236.56.528 0 .292-.25.529-.56.529h-6.716c-.31 0-.56-.237-.56-.529zm.559 1.586c-.31 0-.56.237-.56.529 0 .291.25.528.56.528h6.716c.31 0 .56-.236.56-.528 0-.292-.25-.53-.56-.53h-6.716z" fill="#E4E8F4"/><path d="M4.287 27.117a.33.33 0 00-.339.32c0 .177.151.32.339.32.394 0 .704.12.949.367.715.72.619 2.234.617 2.271v4.078c0 1.027.302 1.82.897 2.353.714.64 1.616.686 1.855.686l.06-.001a.327.327 0 00.32-.336.333.333 0 00-.356-.303c-.009.004-.808.033-1.413-.51-.456-.408-.686-1.044-.686-1.889v-4.056c.005-.073.117-1.805-.798-2.729a1.88 1.88 0 00-.305-.25c.108-.072.21-.155.305-.251.915-.925.803-2.656.798-2.708v-4.077c0-.842.229-1.475.68-1.885.6-.541 1.409-.516 1.42-.514a.33.33 0 00.355-.303.328.328 0 00-.32-.336c-.048 0-1.101-.045-1.914.685-.596.534-.897 1.326-.897 2.353V24.5c.03.42-.021 1.647-.616 2.249-.246.247-.557.367-.951.367z" fill="#3980FF"/><path d="M7.386 1.133h15.228a2.228 2.228 0 01-2.205 1.909H9.591c-1.122 0-2.05-.83-2.205-1.91z" fill="#14161D" stroke="#14161D"/></svg>
